X:1
T: Graham's Rant
C:
R:Strathspey
Q: 128
K:G
M:4/4
L:1/16
|:D3G B3d c3B A3G|F3G A3B c3B c3A|G3B ((3d2e2f2) g3d B3d|e3c A3c ((3B2A2G2) g4|
D3G B3d c3B A3G|F3G A3B c3B c3A|G3B ((3d2e2f2) g3d B3d|e3c A3c BG3 G4|
g3d a3d b3g d3f|g3e c3e d3B ((3G2B2d2) |g3d a3d b3a c'4|b3g ((3a2g2f2) g4 ((3d2e2f2) |
g3d a3d b3g d3g|e3d c3B A3G E3G|((3e2f2g2) ((3f2g2a2) g4 ((3g2f2e2) |d3c A3c BG3 G4:|
